X:20302
T:Sling Swing
R:Reel|Jig|Slip Jig|Hornpipe|Polka|Waltz
B:Tuneworks Tunebook 2 (https://www.tuneworks.co.uk/)
G:Tuneworks
Z:Jon Warbrick <jon.warbrick@googlemail.com>
M:4/4
L:1/8
K:D
|: "D" AF"A7"GE"D" D2 DD | "A7" EFGE EFGE | "D" AF"A7"GE"D" D2 DD | "A7" EFGE"D" D2 z2 :|
|: "D" A2 FA BAFA | "Em" GAEA FAD(A | "F#m" A2) FA BAFA | "G" GA"A"EA"D" D2 z2 :|